X: 2
T: Polska # 2
T: efter Johan Karlsson
M: 3/4
L: 1/16
K: Dmaj
Q:120
|: {g}f3{gf}e d4F4| (E3FE) D3F A3d| (cdcB A3)g f3e| e3d d3F A4 | {g}f3{gf}e d4F4|
(E3FE) D3F A3d| (cdcB A3)g f3e| e3c d8  :: d4 g3b b3g | d4f3g a3A|  A4 c3d e3d|
d4 f3g a3d| d4 g3b b3g | d4f3g a3A | A3c e3g f3e| e2(fe) d8:|

